Papirus/64x64/apps/heroic.svg

<svg width="64" height="64" version="1.1" xmlns="http://www.w3.org/2000/svg">
 <path d="m36.000008 6c-0.999446-0.40625-3.000552-1-4-1-0.999446 0-3.000552 0.59375-4 1l-15.999999 6c-1.147719 0.46115-2.000017 1.076162-2.000009 2 9e-6 1 0.229977 1.492826 0.499724 2.5l9.500284 33.5s0.404356 1.16096 1 2c0.545668 0.76864 2 2 2 2l7 6s1.255056 1 2 1 2-1 2-1l7-6s1.432298-1.247508 2-2c0.59174-0.784352 1-2 1-2l9.5-33.5c0.31707-0.990188 0.5-1.5 0.5-2.5 0-0.884118-0.640038-1.513139-2-2z" style="opacity:.2"/>
 <path d="m36.000008 5c-0.999446-0.40625-3.000552-1-4-1-0.999446 0-3.000552 0.59375-4 1l-15.999999 6c-1.147719 0.46115-2.000017 1.076162-2.000009 2 9e-6 1 0.229977 1.492826 0.499724 2.5l9.500284 33.5s0.404356 1.16096 1 2c0.545668 0.76864 2 2 2 2l7 6s1.255056 1 2 1 2-1 2-1l7-6s1.432298-1.247508 2-2c0.59174-0.784352 1-2 1-2l9.5-33.5c0.31707-0.990188 0.5-1.5 0.5-2.5 0-0.884118-0.640038-1.513139-2-2z" style="fill:#50beee"/>
 <path d="m32 13-3.999992 6 2.499992 24.5 1.5 1.5 1.5-1.5 2.500008-24.5zm-7 32-1 2 1 2 5.000008-0.5 1-1.5-1-1.5zm14 0-4.999992 0.5-1 1.5 1 1.5 4.999992 0.5 1-2zm-7 4-1.5 1.5-0.5 4.5 2.000008 1 1.999992-1-0.5-4.5z" style="opacity:.2"/>
 <path d="m32 12-3.999992 6 2.499992 24.5 1.5 1.5 1.5-1.5 2.500008-24.5zm-7 32-1 2 1 2 5.000008-0.5 1-1.5-1-1.5zm14 0-4.999992 0.5-1 1.5 1 1.5 4.999992 0.5 1-2zm-7 4-1.5 1.5-0.5 4.5 2.000008 1 1.999992-1-0.5-4.5z" style="fill:#4f4f4f"/>
 <path d="m 32,12 -4.011256,6.016896 0.09976,0.850361 L 32,13 35.911512,18.867256 36,18 Z m -7,32 -1,2 0.25,0.5 0.75,-1.5 5.000008,0.5 0.666667,1 L 31,46 30.000008,44.5 Z M 39,44 34.000008,44.5 33,46 l 0.333341,0.5 0.666667,-1 L 39,45 39.75,46.5 40,46 Z M 32,48 30.5,49.5 30,54 30.105263,54.052631 30.753906,49.875 32,49 33.246094,49.875 33.894737,54.052632 34,54 33.5,49.5 Z" style="fill:#ffffff;opacity:.2"/>
 <path d="m52.000008 12-16-6c-0.999446-0.40625-3.000552-1-4-1-0.999446 0-3.000552 0.59375-4 1l-15.999999 6c-1.208561 0.505734-1.41902 1-1.500285 3.5-0.269747-1.007174-0.499715-1.5-0.499724-2.5-8e-6 -0.923838 0.85229-1.53885 2.000009-2l15.999999-6c0.999448-0.40625 3.000554-1 4-1 0.999448 0 3.000554 0.59375 4 1l16 6c1.359962 0.486861 2 1.115882 2 2 0 1-0.18292 1.509812-0.5 2.5 0-2.5-0.10196-2.938759-1.5-3.5z" style="fill:#ffffff;opacity:.2"/>
</svg>

<svg xmlns="http://www.w3.org/2000/svg" width="64" height="64" version="1.1">
 <path style="opacity:0.2" d="M 36,6 C 35.001,5.5937 32.999,5 32,5 31.001,5 28.999,5.5937 28,6 L 12,12 C 10.852,12.461 10,13.076 10,14 10,15 10.23,15.493 10.5,16.5 L 20,50 C 20,50 20.404,51.161 21,52 21.546,52.769 23,54 23,54 L 30,60 C 30,60 31.255,61 32,61 32.745,61 34,60 34,60 L 41,54 C 41,54 42.432,52.752 43,52 43.592,51.216 44,50 44,50 L 53.5,16.5 C 53.817,15.51 54,15 54,14 54,13.116 53.36,12.487 52,12 Z"/>
 <path style="fill:#50beee" d="M 36,5 C 35.001,4.5937 32.999,4 32,4 31.001,4 28.999,4.5937 28,5 L 12,11 C 10.852,11.461 10,12.076 10,13 10,14 10.23,14.493 10.5,15.5 L 20,49 C 20,49 20.404,50.161 21,51 21.546,51.769 23,53 23,53 L 30,59 C 30,59 31.255,60 32,60 32.745,60 34,59 34,59 L 41,53 C 41,53 42.432,51.752 43,51 43.592,50.216 44,49 44,49 L 53.5,15.5 C 53.817,14.51 54,14 54,13 54,12.116 53.36,11.487 52,11 Z"/>
 <path style="opacity:0.2" d="M 32,13 28,19 30.5,43.5 32,45 33.5,43.5 36,19 Z M 25,45 24,47 25,49 30,48.5 31,47 30,45.5 Z M 39,45 34,45.5 33,47 34,48.5 39,49 40,47 Z M 32,49 30.5,50.5 30,55 32,56 34,55 33.5,50.5 Z"/>
 <path style="fill:#4f4f4f" d="M 32,12 28,18 30.5,42.5 32,44 33.5,42.5 36,18 Z M 25,44 24,46 25,48 30,47.5 31,46 30,44.5 Z M 39,44 34,44.5 33,46 34,47.5 39,48 40,46 Z M 32,48 30.5,49.5 30,54 32,55 34,54 33.5,49.5 Z"/>
 <path style="fill:#ffffff;opacity:0.2" d="M 32 4 C 31.001 4 28.999 4.5937 28 5 L 12 11 C 10.852 11.461 10 12.076 10 13 C 10 13.248 10.016 13.463 10.041 13.664 C 10.222 12.923 10.997 12.403 12 12 L 28 6 C 28.999 5.5937 31.001 5 32 5 C 32.999 5 35.001 5.5937 36 6 L 52 12 C 53.183 12.424 53.821 12.955 53.967 13.668 C 53.989 13.466 54 13.248 54 13 C 54 12.116 53.36 11.487 52 11 L 36 5 C 35.001 4.5937 32.999 4 32 4 z"/>
 <path style="fill:#ffffff;opacity:0.1" d="M 32 12 L 28 18 L 28.088 18.867 L 32 13 L 35.912 18.867 L 36 18 L 32 12 z M 25 44 L 24 46 L 24.25 46.5 L 25 45 L 30 45.5 L 30.666 46.5 L 31 46 L 30 44.5 L 25 44 z M 39 44 L 34 44.5 L 33 46 L 33.334 46.5 L 34 45.5 L 39 45 L 39.75 46.5 L 40 46 L 39 44 z M 32 48 L 30.5 49.5 L 30 54 L 30.105 54.053 L 30.5 50.5 L 32 49 L 33.5 50.5 L 33.895 54.053 L 34 54 L 33.5 49.5 L 32 48 z"/>
</svg>
